X: 42653
T: Whiskey, The
R: jig
M: 6/8
K: Gmajor
|:GB/c/d|g2 e d2 c|BAB G2 A|BcB BAG|A3 AFD|
B2 G c2 A|d2 B e2 c|d2 B cBA|G3:|
|:G2 c|B2 c d2 B|c2 d efg|d2 B BAG|A3 AFD|
[1 B2 c d2 B|c2 d efg|d2 B cBA|G3:|
[2 B2 G c2 A|d2 B e2 c|d2 B cBA|G3||
|:GBd|gag g2 e|fgf f2 g|ece gfe|d3 dfa|
g2 d B G2|c2 d efg|d2 B cBA|G3:|

